**kern
*clefC3
*k[b-e-]
*M4/4
=1-
8B-
8A
(2.B-
=2
8B-)
8A
4r
16B-
8c
16d
4e-
=3
16e-
(4e-
2f)
8e-
16en
=4
16e- 16c 16A
2r
16f
8f
4e-
=5
1r
=6
8.e-
2e-
16d 16B- 16G
8e-
16d 16B-
16d
=7
8c
2c
8d
4c
=8
8c
4r
(4c
8d)
16c
8d
16r
=9
4r
16d
4.c
16r
(4B-
=10
8A)
4G
16F
8G#
4F-
16G#
8G#
=11
*-